X:1
T:- # -
%%score [ 1 2 3 4 ]
L:1/8
M:none
K:F
V:1 treble nm="Sopran" snm=" "
V:2 treble nm="Alt"
V:3 treble-8 nm="Tenor"
V:4 bass nm="Baß"
V:1
"^Christobal de Morales" G8 | B6 G2 | B3 c d4 | B2"^XI.  Pastores dicite" d4 cB |"^5" A2 G2 A4 | %5
w: Pa-|sto- res|di \- *|\- * \- *|\- * ci|
 B4 A4 | z4 z2"^1546" A2- | A2 d4 c2 | d2 f3 e d2- |"^10" dcBA G2 B2 | A2 A2 B2 G2 | d6 cB | %12
w: \- ~te,|pa-|\- sto- res|di~~ * \- *|\- * * \- * ci-|~te, pa- sto- res|di- \- *|
 A2 B2 A2 f2 | ed d3 ^c/=B/ c2 |"^15" d2 G2 A4 | z2 d2 d2 c2 | d4 G2 A2 | B2 c3 B B2- | %18
w: * \- * *|\- * * * \- *|* ci- ~te,|quid- nam vi-|di \- \-|* \- * \-|
 B2 AG F2 d2 |"^20" d2 c2 d3 c | B2 A3 G G2- | G2 ^F2 G2 B2- | BABG A2 B2 | A4 z4 |"^25" z8 | z8 | %26
w: * \- * stis, quid-|nam vi- di *|\- * \- *|\- * * \-||\-stis|||
 z8 | z8 | z8 |"^30" z4 z2 d2 | d2 d2 c2 d2 | GABc de f2- | fe d4 ^c2 | d2 A2 B2 A2 | %34
w: |||et|an- nun- ti- a|* \- * \- * * \-|* \- * te|Chri- sti na- ti-|
"^35" d4 c2 d2- | dcBA B2 c2- | cB B4 A2 | B2 G2 B2 B2 | A2 G2 A3 B |"^40" c2 B4 AG | F2 B3 A A2- | %41
w: \-vi- ta \-|* \- * * \- *|\- * * \-|tem, Chri- sti na-|ti- vi- ta \-|* \- * \-|* \- \- *|
 AG G4 ^F2 | G4 z2 G2 | d2 B2 A4 |"^45" z2 G4 c2- | cB A4 GF | G4 F2 f2 | e2 d4 cB | A2 F2 G4 | %49
w: * \- * *|~tem, no-|e, no \-e,|no- e,||* ~ no-|e, * * *||
"^50" F2 F2 B3 A | GF B4 AG | ^F8 |"^Secunda pars" A8 | B4 G4 | c6 c2 | A2 B3 A A2- | A2 G2 A4 | %57
w: * no- e. *|||In-|fan- tem|vi- di-|mus * * *||
 z2 A2 A2 A2 | cBGA Bc d2- |"^60" defd ed d2- | d2 ^c2 d4- | d4 z2 G2 | G2 G2 d4- | d2 c2 B3 A | %64
w: pan- nis in-|vo * \- * * \- ~|\- * * \- * * \-|\- lu- tum|* pan-|nis in- vo-|\- * lu \-|
"^65" B2 G2 A2 G2- | G2 ^F2 G4 | z8 | z4 z2 A2 | AGAB c2 GA |"^70" Bc d2 c2 A2 | B4 A2 d2- | %71
w: * \- * \-|* * tum||et|cho * * \- * \- *|\- * ros an- ge-|lo- * *|
 dc B2 A4 | GABc d2 e2 | d2 c3 B B2- |"^75" B2 A2 B2 d2- | d2 c2 B2 A2 | B2 c2 d2 B2 | %77
w: |\- * * * * \-|\- * \- *|\- * rum lau-|* de- bant sal-|va- to \- *|
 AGAB cBBA/G/ | A4 G4 |"^80" z2 A2 G2 cB | AG G4 ^F2 | G4 z2 d2 | d3 B c2 d2 | B3 G A2 B2 | %84
w: \- * * * \- * * * *|* rem,|sal- va- to \-|* * \- *|rem, no-|e, * * no-|e, * * *|
"^85" G2 FG A2 B2 | c2 A2 B4 | A2 A2 B3 G | A2 B2 G2 B2- | BA F2 G4 |"^90" F2 B2 A2 G2- | %90
w: * no * \- *|\- * \-|e, no- e, *|* no- ~e, *||no * * *|
 G2 ^F2 G4- | G8 |] %92
w: * * e.||
V:2
 z8 | D8 | G6 F2 | G2 B4 AG | F2 G4 F2 | G2 G,2 D3 C | B,2 G,2 D2 E2 | F4 z2 C2 | F3 E F2 G2 | %9
w: |Pa-|sto- res|di * \- *|\- * ci-|te, pa- sto \-|\- res di- ci-|\-te, pa-|sto- res di- ci-|
 D2 B3 A G2- | G2 F2 G2 G2 | F2 G2 D4 | z4 z2 A2 | A2 G2 A4 | D3 E F2 E2 | F3 G E4 | D3 C DE F2 | %17
w: te, pa \- sto|\- res di- ci-|* \- ~te,|quid-|nam vi- di-|* * * \-|||
 B,2 E3 D D2- | D2 C2 D3 E | F2 E2 D4- | D4 _E4 | D8- | D8 | z8 | z8 | z8 | z8 | z8 | z8 | %29
w: * stis, quid- nam|* vi- di \-|* \- *|\- \-|stis,||||||||
 z4 z2 D2 | D2 D2 F2 D2 | E4 D3 E | F2 G2 E4 | D4 z2 D2 | D2 D2 F3 E | FD G3 FED | EDCB, C4 | %37
w: et|an- nun- ti- a|\- \- *|\- * \-|te Chri-|\-sti na- ti- vi-|ta * \- * * \-|* * * \- *|
 B,2 B,2 B,CDE | F2 D2 F2 F2 | E2 D4 C2 | DCB,C DE F2 | D2 E2 D4 | z2 D2 G3 E | F2 G4 F2 | %44
w: tem, Chri- sti * * *|* na- ti- vi-|ta \- \-|\- * * \- * * \-|* * tem,|no- e, *|* no \-|
 G2 D2 E4 | F3 E C2 D2- | D2 C2 D2 D2 | E2 F2 G2 D2 | F6 E2 | D3 C D4 | B,6 C2 | D8 | F8 | D4 E4- | %54
w: e, no- e,||* * * no-|e, * * no-|e, *||no \-|e.|In-|fan- tem|
 E4 F4- | F4 F4 | D4 z2 D2 | D2 D2 F4 | E4 D3 E | FGAF GFFE/D/ | E4 D4 | z2 D2 D2 D2 | G6 F2 | %63
w: * vi-|* di-|mus pan-|nis in- vo-|lu- \- *|\- * \- * \- * \- * \-|\- ~tum,|pan- nis in-|vo- \-|
 E4 D3 C | B,CDE F2 D2- | DC A,2 B,3 C | D4 z4 | z8 | z8 | z4 z2 D2 | D2 G,2 D3 E | F2 G4 F2 | %72
w: \-lu \- *|\- * * * \- *|\- * * * \-|tum|||et|cho- ros an \-|* \- ge-|
 G4 GFGA | B2 A2 F2 G2 | F4 D4 | G6 F2 | _E4 D3 E | F2 D2 E2 G2- | G2 F2 G3 F | DE F2 G4 | %80
w: lo- * * * *|* \- * \-|* rum|lau- de-|bant sal \-|\- va- to \-|\- * * \-~~~~|* \- * *|
 FEDC D3 C | D2 E2 D2 D2 | F3 G A2 F2 | G4 z2 D2 | E2 F4 D2 | E2 F2 D2 G2- | G2 F2 G4 | %87
w: |* * rem, no-|e, * * no-|e, no-|e, * *|||
 z2 D2 E2 D2 | B,2 D4 C2 | D2 F3 EDC | E8 | E8 |] %92
w: no- e, *|* no \-|~e, no * \- *||e.|
V:3
 z8 | z4 G4- | G4 B4- | B2 G2 B2 c2 | d8- | d4 z2 A2 | d6 c2 | d2 f2 e4 | d8- | d8 | z4 G4 | %11
w: |Pa|\- sto|\- res di- ci-|te,|* pa-|sto- res|di \- ci-|te,||pa-|
 B2 G2 B3 c | de f4 ed | c2 d2 e4 | z2 d2 d2 c2 | d4 G2 A2 | B4 z2 d2 | d2 c2 d4 | G4 A2 B2 | %19
w: sto- res di \-~|\- * * * *|* ci- te,|quid- nam vi-|di- * *|stis, quid-|\-nam vi \-di|\- \- *|
 A2 A2 B4 | G2 A2 B2 c2 | A4 G4 | z4 z2 d2 | d2 d2 c2 d2 | GABc de f2- | fe d4 ^c2 | d2 A2 B2 A2 | %27
w: stis, quid *|nam vi- di \-|\- stis,|et|an- nun- ti- a|\- * * * \- * *|\- * * \-|te Chri- sti na-|
 d4 c2 d2- | dcBA GF B2- | B2 A2 B4- | B4 z4 | z8 | z8 | z8 | z8 | z8 | z8 | z8 | z2 d2 d2 d2 | %39
w: ti- vi- ta-|\- * * * \- * *|\- * ~~tem,|||||||||et an- nun-|
 c2 d2 G3 A | B2 B2 G2 A2 | B2 c2 A4 | G8 | z2 G2 d4 | z2 G2 c4 | A3 G A2 B2- | B2 AG A2 B2 | %47
w: ti- a * \-|\-te Chri- sti na-|ti- vi- ta-|~tem,|no- e,|no- e,|no \- * \-|\- * * \- *|
 c2 d2 B4 | c6 B2 | A2 d3 c B2- | BAGF G4 | A8 | d8 | B4 c4- | c2 c2 A3 B | c2 d3 cBA | B4 A4- | %57
w: \- * e,|no \-|* \- * \-|* \- * * *|e.|In-|fan- tem|* vi- di \-|* \- * \- *|\- mus|
 A4 z4 | z8 | z8 | A4 A2 A2 | d3 c BA B2- | B2 AG A2 B2 | G2 A2 BABc | d2 B2 cBAG | A4 G4 | %66
w: |||pan- nis in-|vo- * * * \-|* * * * \-|* * \- * \- *|\- * * * \- *|lu- tum|
 z2 d2 d2 A2 | c3 d e2 f2- | f2 ed c2 d2- | dc B2 A4 | G4 z4 | z4 z2 d2 | d2 G2 d2 c2 | %73
w: et cho- ros|an- * ge- lo-|\- * \- * *|* * * \-|rum|et|cho- ros an- ge-|
 B2 c2 d2 _e2 | c4 B4 | z4 d4- | d2 c2 B2 G2 | d4 c2 e2 | d2 d4 c2 | B2 A2 B2 c2- | cBAG A2 A2 | %81
w: \-lo * \- *|\- rum|lau-|* * de- bant|sal- va- to-|rem, lau- de-|\-bant sal- va- to|\- * \- * rem, sal-|
 B2 c2 A4- | A8 | z2 G2 d3 B | c2 d3 c B2 | A4 z2 G2 | d4 z2 G2 | d3 B c2 d2 | G2 B4 AG | %89
w: va- to- rem,||no- e, *|* no- * \-|\-e, no-|e, no-|e, * * *||
 A2 d2 c2 B2 | A8 | G8 |] %92
w: * no * \-|\--|e.|
V:4
 z8 | z8 | z8 | z8 | D,8 | G,6 F,2 | G,3 A, B,2 A,2- | A,2 G,F, G,2 A,2 | D,4 z2 G,2 | %9
w: ||||Pa-|sto- res|di \- * \-|* \- * ci *|te, pa-|
 B,2 G,2 B,3 C | D4 z4 | z4 z2 D,2 | F,2 D,2 F,3 G, | A,2 B,2 A,3 G, | F,2 B,2 A,4 | D,4 z4 | %16
w: sto- res di- ci-|te,|pa-|\-sto- res di \-|* \- * \-|* \- ci-|te,|
 z2 G,2 G,2 F,2 | G,2 C,2 G,3 F, | E,4 D,4 | %19
w: quid- nam vi-|\-di * \- *|\- stis,|
 z4"^© Michael Wendel 2005\nThis edition may be freely duplicated, distributed, performed or recorded for non-profit performance or use.\n" z2 G,2 | %20
w: quid-|
 G,2 F,2 _E,2 C,2 | D,4 z2 G,2 | G,2 G,2 F,2 G,2 | D,E,F,G, A,2 B,2- | B,2 A,G, F,2 D,2 | %25
w: nam vi- di \-|stis, et|an- nun- ti- a-|* \- * \- te, et|* * * * an-|
 F,2 G,2 E,4 | D,4 z2 D,2 | D,2 D,2 F,3 E, | D,2 E,3 D,C,B,, | C,4 B,,4- | B,,4 z4 | z8 | z8 | z8 | %34
w: nun- ti- a-|te Chri-|sti na- ti \-|\-vi- ta \- * *|\- ~~tem,|||||
 z8 | z8 | z8 | z2 G,2 G,2 G,2 | F,2 G,2 D,E,F,G, | A,2 D,2 E,4 | D,2 G,4 F,2 | G,2 C,2 D,4 | G,8 | %43
w: |||Chri- sti na-|ti- vi- ta * \- *|\- * \-|\-tem, na- *|ti- vi- ta-|~tem,|
 z4 D,4 | G,4 z2 C,2 | F,6 D,2 | E,4 D,4 | z2 D,2 G,4 | F,4 C,4 | D,4 B,,4 | E,4 D,4- | D,8 | D,8 | %53
w: no-|e, no-|e, *||no- e,|no \-|\- \-|\- e.||In-|
 G,4 C,4- | C,4 F,4- | F,2 B,,2 F,4 | G,4 D,4- | D,8 | z8 | z8 | z4 D,4 | D,2 D,2 G,4 | _E,4 D,4 | %63
w: fan- tem|* vi-|* * di-|* mus||||pan-|nis in- vo-|lu- ~tum,|
 z4 G,4 | G,2 G,2 F,2 G,2 | D,4 z2 G,2 | G,2 D,2 F,3 G, | A,2 F,2 G,2 A,2 | D,E,F,G, A,2 B,2- | %69
w: pan-|nis in- vo- lu-|tum et|cho- ros an \-|\- ge- lo \-|\- * * * \- *|
 B,A, G,4 F,2 | G,4 D,4 | z8 | G,4 G,2 C,2 | G,2 A,2 B,2 _E,2 | F,4 B,,4 | z8 | z8 | z8 | z4 G,4- | %79
w: * \- * \-|* rum||et cho- ros|an \- \- ge-|lo- rum||||lau-|
 G,2 F,2 _E,2 C,2 | F,2 G,2 D,2 D,2 | G,2 C,2 D,4- | D,4 z2 D,2 | G,3 E, F,2 G,2 | %84
w: \- de- bant sal-|va- to- rem, sal-|va- to- rem,|* no-|e, * * no-|
 C,2 F,2 D,2 G,2- | G,2 F,2 G,4 | z2 D,2 G,3 E, | F,2 G,2 C,2 G,2- | G,F, D,2 E,4 | %89
w: e, * * *||no- e, *|* no- e. *||
 D,3 E, F,2 G,2 | D,4 G,4- | G,8 |] %92
w: |||

